svgs/duotone/dolphin.svg

<svg xmlns="http://www.w3.org/2000/svg" viewBox="0 0 512 512"><!-- Font Awesome Pro 6.0.0-alpha2 by @fontawesome - https://fontawesome.com License - https://fontawesome.com/license (Commercial License) --><defs><style>.fa-secondary{opacity:.4}</style></defs><path d="M438.367 129.523L424.463 117.605C433.479 93.359 450.693 63.469 476.771 27.711C482.082 20.383 480.053 12.676 476.338 7.895C471.719 1.914 464.508 -1.012 456.002 0.32C404.248 8.438 362.387 24.953 332.08 40.402C296.578 14.68 254.174 0 210.045 0H176C96.471 0 32 64.469 32 144C32 162.383 35.771 179.805 42.049 195.969L14.25 214.5C5.348 220.438 0 230.43 0 241.125V256C0 273.676 14.326 288 32 288H192H191.998H192.943L295.768 349.695C306.432 356.094 320 348.414 320 335.977V288H322.902C323.736 288 324.492 288.211 325.314 288.25C326.221 288.203 327.082 288 328 288C358.928 288 384 313.07 384 344S358.928 400 328 400H265.779L252.713 378.688C248.307 372.031 240.809 368 232.746 368H171.994C162.434 368 156.729 378.656 162.029 386.609L197.582 439.984V440.012L162.057 493.344C156.744 501.32 162.463 512 172.047 512H232.744C240.809 512 248.307 507.969 252.713 501.312L265.779 480H320C425.92 480 512.41 393.918 512 288C512 202.27 460.314 148.336 438.367 129.523ZM151.256 176C139.309 176 129.838 167.113 128 155.684V148.316C129.838 136.887 139.309 128 151.256 128C164.51 128 175.256 138.742 175.256 152C175.256 165.254 164.51 176 151.256 176Z" class="fa-secondary"/><path d="M128 148.316C129.838 136.887 139.309 128 151.256 128C164.51 128 175.256 138.744 175.256 152C175.256 165.254 164.51 176 151.256 176C139.309 176 129.838 167.113 128 155.684V148.316Z" class="fa-primary"/></svg>

<svg xmlns="http://www.w3.org/2000/svg" viewBox="0 0 512 512"><!--! Font Awesome Pro 6.3.0 by @fontawesome - https://fontawesome.com License - https://fontawesome.com/license (Commercial License) Copyright 2023 Fonticons, Inc. --><defs><style>.fa-secondary{opacity:.4}</style></defs><path class="fa-primary" d="M128 148.3C129.8 136.9 139.3 128 151.3 128c13.25 0 24 10.74 24 24c0 13.25-10.75 24-24 24C139.3 176 129.8 167.1 128 155.7V148.3z"/><path class="fa-secondary" d="M438.4 129.5l-13.9-11.92c9.016-24.25 26.23-54.14 52.31-89.89c5.311-7.328 3.281-15.04-.4336-19.82c-4.619-5.98-11.83-8.907-20.34-7.575c-51.75 8.117-93.62 24.63-123.9 40.08c-35.5-25.72-77.93-40.4-122.1-40.4L176 0C96.47 0 32 64.47 32 144c0 18.38 3.771 35.8 10.05 51.97L14.25 214.5C5.348 220.4 0 230.4 0 241.1V256c0 17.68 14.33 32 32 32L192.9 288l102.8 61.7C306.4 356.1 320 348.4 320 335.1V288h2.902c.834 0 1.59 .21 2.412 .249C326.2 288.2 327.1 288 328 288C358.9 288 384 313.1 384 344s-25.07 56-56 56h-62.22l-13.07-21.31C248.3 372 240.8 368 232.7 368H171.1c-9.561 0-15.27 10.66-9.965 18.61l35.55 53.38l-35.53 53.36C156.7 501.3 162.4 512 172 512H232.7c8.064 0 15.58-4.033 19.99-10.69L265.8 480H320c105.9 0 192.4-86.08 192-191.1C512 202.3 460.3 148.3 438.4 129.5zM151.3 176C139.3 176 129.8 167.1 128 155.7V148.3C129.8 136.9 139.3 128 151.3 128c13.25 0 24 10.74 24 24C175.3 165.3 164.5 176 151.3 176z"/></svg>
